X:1
T:5 Little Love Songs
T:If I were a bird, I would sing all day
T:To Berrick von Norden 
T:5 Little Love Songs
T:Liza Lehmann
T:4. If I were a bird, I would sing all day
T:Cora Randall Fabbri
T:Creative Commons copyright waiver (CC0 1.0 Universal)
T:Creative Commons copyright waiver (CC0 1.0 Universal)
T:Creative Commons copyright waiver (CC0 1.0 Universal)
T:Creative Commons copyright waiver (CC0 1.0 Universal)
T:Creative Commons copyright waiver (CC0 1.0 Universal)
C:Liza Lehmann
Z:Cora Randall Fabbri
Z:Creative Commons copyright waiver (CC0 1.0 Universal)
%%score ( 1 2 3 ) { ( 4 6 ) | ( 5 7 ) }
L:1/8
Q:1/4=116
M:6/8
K:Bb
V:1 treble nm="Voice"
V:2 treble 
V:3 treble 
V:4 treble nm="Piano"
V:6 treble 
V:5 bass 
V:7 bass 
V:1
"^Allegretto ma non troppo." z | z6 | z6 | z6 | z2 z z2"^rapturously"!mp! B | d c B !>!f3 | %6
w: ||||If|I were a bird,|
w: ||||||
 d2 B G2 B | d6- | d2 z B2 d | (f2 d) B B c | !tenuto!.d2 !tenuto!.B !breath!!tenuto!G A B | %11
w: I would sing all|day;|_ I would|sing of you To the|drop- ping dew, To the|
w: |||||
 c3 (g3 | c3-) !breath!c B c | d2 B f3- | f6- |!<(! f6-!<)! | f2 z!mp!!<(! c2 d | !>!e3 !>!c3!<)! | %18
w: heav- en’s|blue, _ All the|praise I knew,|_||* Till the|whole world|
w: |||||||
!f! !>!_g6- | g6- | g3 z2!mf! B | !>!d3- d c B | !>!d6- | d2 z z2 z | z2!mp! B !>!c B A | !>!B6- | %26
w: heard\-|_|* If-|I _ were a|bird!|_|If I were a|bird!|
w: ||||||||
!>(! B6- | B2!>)! z z2 z | z2 z z2!pp! B |"^un poco ritenuto"[Q:1/4=110] d c B (!fermata!f3 | %30
w: _||If|I were a flow’r-|
w: ||||
{/d)} !>!!breath!d2 B G2 B | d6- | d2 z!p! B2 d | !>!f2 d !>!!breath!!fermata!B B c | d2 B G A B | %35
w: Say, a dai- sy|small \- |_ I would|kiss your feet When I|saw you fleet, Pass me|
w: |||||
[Q:1/4=106] !breath!c3 (g3 | c3-) !breath!c"^a tempo"[Q:1/4=118] B c | d2 B f3- | f6- | %39
w: by, O|sweet! _ I would|mur- mur “Dear”|_|
w: * (my)||||
!<(! f6-!<)! | f2 z!mp! c2 d | !>!_e3 !>!c3 |!<(! !>!_g6-!<)! |!>(! g6-!>)! | g3 z2!mf! B | %45
w: |* All the|sum- mer|hour \- |_|* If|
w: ||||||
 !>!d3- d c B |!<(! !>!d6-!<)! |!>(! d6- | d3-!>)! d z"^rapturously"!mp! B | %49
w: I _ were a|flow’r.|_|* * If|
w: ||||
"^poco rit. ad lib."[Q:1/4=100] !>!d c B !>!!fermata!G A B | %50
w: I were a flow’r, I would|
w: |
 !>!d2 !tenuto!B !>!!breath!G2"^cresc." B |[Q:1/4=94] !>!d c B !>!!fermata!G A B | %52
w: kiss your feet \- If|I were a bird, I would|
w: ||
 !>!!fermata!d2 !tenuto!!fermata!B !breath!!tenuto!!fermata!G"^a tempo"[Q:1/4=104]!mp! A B | %53
w: sing, my sweet, Till the|
w: |
"^cresc. molto" !>!d3 !>!c3 | g6- | g6- |!ff!!>(! g6- | g2!>)! z4 | %58
w: whole world|heard\-|_|||
w: |||||
 z2"^dim." G !>!!fermata!A !tenuto!!fermata!B !tenuto!!fermata!c |!pp! b6- | b6- | b6- | %62
w: If I were a|bird!|_||
w: ||||
 !fermata!b6 |] %63
w: |
w: |
V:2
 x | x6 | x6 | x6 | x6 | x6 | x6 | x6 | x6 | x6 | x6 | x6 | x6 | x6 | x6 | x6 | x6 | x6 | x6 | x6 | %20
 x6 | x6 | x6 | x6 | x6 | x6 | x6 | x6 | x6 | x6 | x6 | x6 | x6 | x6 | x6 | x6 | x6 | x6 | x6 | %39
 x6 | x6 | x6 | x6 | x6 | x6 | x6 | x6 | x6 | x6 | x6 | x6 | x6 | x6 | x6 | x6 | x6 | g3- g2 z | %57
 x6 | x6 | x6 | x6 | x6 | x6 |] %63
V:3
 x | x6 | x6 | x6 | x6 | x6 | x6 | x6 | x6 | x6 | x6 | x6 | x6 | x6 | x6 | x6 | x6 | x6 | x6 | x6 | %20
 x6 | x6 | x6 | x6 | x6 | x6 | x6 | x6 | x6 | x6 | x6 | x6 | x6 | x6 | x6 | x6 | x6 | x6 | x6 | %39
 x6 | x6 | x6 | x6 | x6 | x6 | x6 | x6 | x6 | x6 | x6 | x6 | x6 | x6 | x6 | x6 | x6 | x6 | x6 | %58
 x6 | f6- | f6- | f6- | f6 |] %63
V:4
!f! B | !>!d3- !fermata!dcB |{/B} !>!d6 | z (d'c'!>(! (3b/c'/b/ .g.d |"_L.H." B3- B2)!>)!!mp! z | %5
 z2 z !tenuto![DFBd]3 | z2 z !tenuto![DGBd]3 | z2 z !tenuto![D^FBd]3 | z2 z !tenuto![D=FBd]3 | %9
 z2 z [DFBd]3 | z2 z [DGBd][=Ec][DB] | [CA]3 [B,CG]3 | !arpeggio![G,B,CG]3 [A,EA]3 | %13
 z2 z !tenuto![DFBd]3 | z2 z [DFBd]3 | z[I:staff +1] D,G,[I:staff -1] =B,DF | [Dd]6 | %17
 z2 z [G,CEG]3 |!<(! z2 z [B,CE_G]3 |[I:staff +1] (B,CE[I:staff -1] (4:6:4(_G/-B/-c/-e/-)!<)! | %20
"^L.H."!f! !>!b2) z!mf! [CEB]3 | z2 z !tenuto![DFBd]3 | z2 z !tenuto![D^FBd]3 | %23
 z!f! d'c'!>(! (3b/c'/b/ .g.d |"_L.H."[I:staff +1] !>!=E3!>)!!mp![I:staff -1] [_EG]3 | %25
"_leggiero" z!<(! DF BFB | dBd"_L.H." fcf!<)! |!>(! !>!bf z !>!bf z | %28
 !>!bf z !>!b!>)!!ppp!f!pp! z |!pp! z2 z !fermata![dfbd']3 | z2 z !tenuto![dgbd']3 | %31
 z2 z !tenuto![d^fbd']3 | z2 z !tenuto![d=fbd']3 | z2 z !fermata![dfbd']3 | %34
 z2 z !tenuto![dgbd']!tenuto![=ec']!tenuto![db] | [ca]3 [Bcg]3 | %36
 !arpeggio![GBcg]3"_a tempo" [A,EA]3 |!<(! z2 z !tenuto![DFBd]3 | z2 z [DFBd]3 | %39
 z[I:staff +1] D,G,[I:staff -1] =B,DF!<)! |!mf! [Dd]6 |!<(! z2 z [G,CEG]3 | z2 z [B,CE_G]3 | %43
[I:staff +1] (B,CE[I:staff -1] (4:6:4_G/-B/-c/-e/-!<)! |"^L.H."!f! !>!b2) z!mp! z2 z | %45
!mp!!<(! z2 z !tenuto![DFBd]3 | z2 z !tenuto![D^FBd]3 | z B,D GDG!<)! | %48
"_L.H."!f! B!<(!GB!<)! d2!mp! z | (!arpeggio![=E,G,B,D]6 | !arpeggio![=egbd']2) z z2 z | %51
"_cresc." (!arpeggio![=E,G,B,D]6 | %52
 !arpeggio![=egbd']2) !arpeggio!!tenuto![degb] !arpeggio!!tenuto![Bdeg]2"_a tempo" z | %53
"_cresc. molto" [DFBd]3 [CFAc]3 | [A,FA]3 [=B,FG=B]3- | [B,FGB]6 | [CEGc]6 | %57
!ff! !breath!z!mp! (g'"_grazioso dim."f' (3e'/f'/e'/ .c'.g | %58
"_L.H."!>(! e2) z!>)!"_colla voce" [EG][DF][CE] |!pp!!<(! B df"_L.H." bfb | %60
 d'bd' f'c'!8va(!f''!<)! | %61
!mp!"^^\nIMSLP172622 has an ottava \nbelow this D. I consider it some \ncombination of incorrect, confusing\nor redundant and have removed it.\n" b'2!8va)! z!p! z2 z | %62
 !fermata![F,B,D]6 |] %63
V:5
 z |!ped! z2 z !arpeggio![C,,G,,C,]3- | [C,,G,,C,]6!ped-up! | !arpeggio![C,,G,,C,]6- | %4
 [C,,G,,C,]3 F,,3 | [B,,,B,,-]F,-B,- [B,,F,B,]3 | G,,-D,-B,- [G,,D,B,]3 | B,,-^F,-B,- [B,,F,B,]3 | %8
 B,,-=F,-B,- [B,,F,B,]3 | A,,-F,-B,- [A,,F,B,]3 | G,,-D,-B,- [G,,D,B,]3 | z C,D, =E,3 | %12
 [F,,E,]3 [F,,,F,,]3 | [B,,,B,,-]F,-B,- [B,,F,B,]3 | _A,,-F,-B,- [A,,F,B,]3 | G,,6- | (C3 =B,3) | %17
 C,,-G,,-E,- [C,,G,,E,]3 | C,,_G,,-E,- [G,,E,]3 | C,,6- | C,,3 [_G,,E,]3 | F,,-D,-B,- [F,,D,B,]3 | %22
 ^F,,-D,-B,- [D,B,]3 | !arpeggio![C,,G,,C,]6- | [C,,G,,C,]3 F,,3- | [B,,,F,,]6- | [B,,,F,,]6- | %27
 [B,,,F,,]6- | [B,,,F,,]6 |[K:treble] B,-F-B- !fermata![B,FB]3 | G,-D-B- [G,DB]3 | %31
 B,-^F-B- [B,FB]3 | B,-=F-B- [B,FB]3 | !>!A,-F-B- [A,FB]3 | G,-D-B- [G,DB]3 |[K:bass] z CD =E3 | %36
 [F,_E]3 [F,,C,F,]3 | [B,,,B,,-]F,-B,- [B,,F,B,]2 A,, | _A,,-F,-B,- [A,,F,B,]3 | G,,6- | %40
 (C3 =B,3) | C,,-G,,-E,- [C,,G,,E,]3 | C,,_G,,-E,- [C,,G,,E,]3 | C,,6- | C,,3 [_G,,E,]3 | %45
 F,,-D,-B,- [F,,D,B,]3 | ^F,,-D,-B,- [F,,D,B,]3 | [G,,D,]6- | [G,,D,]6 | %49
"^poco rit." (!arpeggio![C,,G,,C,]6- |[I:staff -1] !arpeggio![=EGBd]6) | %51
[I:staff +1] (!arpeggio![C,,G,,C,]6- | %52
[I:staff -1] !arpeggio![=EGBd]2) !arpeggio!!tenuto![DEGB] !arpeggio!!tenuto![B,DEG]2[I:staff +1] z | %53
 [F,,,F,,]3 [_E,,_E,]3 | [D,,D,]3 [G,,,G,,]3 | [C,,,C,,]6- | [C,,,C,,]6 |"^ten."!ped! [F,,,F,,]6- | %58
 [F,,,F,,]3!ped-up! F,,3 |!ped! [B,,,F,,]6- | [B,,,F,,]6- | [B,,,F,,]3 [F,,,F,,]2!8vb(! z | %62
 !fermata!B,,,,6!ped-up!!8vb)! |] %63
V:6
 x | x3 !arpeggio![=E,G,B,D]3- | [E,G,B,D]6 | !arpeggio![=E,G,B,D]6 | %4
[I:staff +1] !>!=E3[I:staff -1] [_EG]3 | x6 | x6 | x6 | x6 | x6 | x6 | x6 | x6 | x6 | x6 | x6 | %16
 (!arpeggio![F_A]3 G3) | x6 | x6 | x6 | [GBce]3 x3 | x6 | x6 | !arpeggio![=E,B,D]6 | B2 z x3 | %25
 z2 z[I:staff +1] D2[I:staff -1] z |[I:staff +1] F2[I:staff -1] z B2 z | (!>!d2 c) (!>!d2 c) | %28
 (!>!d2 c) (!>!d2 c) | x6 | x6 | x6 | x6 | x6 | x6 | x6 | x6 | x6 | x6 | x6 | %40
 (!arpeggio![F_A]3!mp! G3) | x6 | x6 | x6 | [GBce]3 [CEB]3 | x6 | x6 | %47
 z2 z[I:staff +1] B,2[I:staff -1] z | D2 z !>!A2 G | x6 | x6 | x6 | x6 | x6 | x6 | x6 | x6 | %57
 !>![A,EG]6 | A2 x A,3 | [B,D] z z d2 z | f2 z b2!8va(! z | d'2!8va)! x4 |[I:staff +1] D,6 |] %63
V:7
 x | x6 | x6 | x6 | x6 | x6 | x6 | x6 | x6 | x6 | x6 | C,,6 | x6 | x6 | x6 | x6 | G,,6 | x6 | %18
 C,,6- | x6 | x6 | x6 | x3 F,,2 G,, | x6 | x6 | x6 | x6 | x6 | x6 |[K:treble] x6 | x6 | x6 | x6 | %33
 x6 | x6 |[K:bass] C,6 | x6 | x6 | x6 | x6 | G,,6 | x6 | C,,6- | x6 | x6 | x6 | x6 | x6 | x6 | x6 | %50
 [C,,G,,C,]6 | x6 | [C,,G,,C,]6 | x6 | x6 | x6 | x6 | x6 | x6 | x6 | x6 | x5!8vb(! x | x6!8vb)! |] %63

